X:3
T:Glen McCabe's Reel
R:reel
C:Paul M. MacDonald, SOCAN
O:20th Century Cape Breton
S:Silver Apple News,1992
B:Jerry Holland's Collection of Fiddle Tunes, ISBN-96911-2-0
N:Contacts ...
N:..... Paul MacDonald Recordings > http://www.cranfordpub.com
N:..... Paul MacDonald > paulmac@cranfordpub.com
N:..... Cranford Publications <http://www.cranfordpub.com>
Z:This abc transcription is for personal use only,
Z:provided this notice remains attached.
Z:Used by permission of the composer and publisher.
Z:Paul Stewart Cranford > psc@nbnet.nb.ca
Q:333
L:1/8
M:C|
K:D
dfef dAFA|BGGB AFFA|dfef dAFA|BAGF E/E/E EA|!
dfef dAFA|BGGB AFFA|dfed cBAF|GBAF D/D/D D2:|!
|:adda bggf|adda Aceg|fdec dBAF|GBAF E/E/E E2|!
[1 adda bggf|adda Aceg|fdec dBAF|GBAF D/D/D D2:|!
[2FAGB AFD2|dAgf eEEg|fdec dBAF|GBAF D/D/D D2|]!

